img/webstudiologo.svg

<svg width="160" height="34" viewBox="0 0 160 34" fill="none" xmlns="http://www.w3.org/2000/svg">
<g filter="url(#filter0_d)">
<path d="M12.294 6.592H15.596L17.676 12.702L19.756 6.592H23.084L19.938 14.99L22.278 20.892L27.504 6.54H31.404L23.89 25H20.874L17.676 17.252L14.478 25H11.462L4 6.54H7.848L13.1 20.892L15.388 14.99L12.294 6.592ZM38.3793 25.26C37.2873 25.26 36.2993 25.078 35.4153 24.714C34.5313 24.3327 33.7773 23.8213 33.1533 23.18C32.5293 22.5387 32.044 21.7933 31.6973 20.944C31.368 20.0947 31.2033 19.202 31.2033 18.266C31.2033 17.2953 31.368 16.3853 31.6973 15.536C32.0266 14.6693 32.5033 13.9153 33.1273 13.274C33.7513 12.6153 34.5053 12.0953 35.3893 11.714C36.2906 11.3327 37.296 11.142 38.4053 11.142C39.5146 11.142 40.5026 11.3327 41.3693 11.714C42.2533 12.0953 42.9986 12.6067 43.6053 13.248C44.2293 13.8893 44.6973 14.6347 45.0093 15.484C45.3386 16.3333 45.5033 17.2173 45.5033 18.136C45.5033 18.3613 45.4946 18.578 45.4773 18.786C45.4773 18.994 45.46 19.1673 45.4253 19.306H34.8953C34.9473 19.8433 35.0773 20.32 35.2853 20.736C35.4933 21.152 35.762 21.5073 36.0913 21.802C36.4206 22.0967 36.7933 22.322 37.2093 22.478C37.6253 22.634 38.0586 22.712 38.5093 22.712C39.2026 22.712 39.8526 22.5473 40.4593 22.218C41.0833 21.8713 41.508 21.4207 41.7333 20.866L44.7233 21.698C44.2206 22.738 43.4146 23.596 42.3053 24.272C41.2133 24.9307 39.9046 25.26 38.3793 25.26ZM41.9153 17.044C41.8286 16.0213 41.4473 15.2067 40.7713 14.6C40.1126 13.976 39.3066 13.664 38.3533 13.664C37.8853 13.664 37.4433 13.7507 37.0273 13.924C36.6286 14.08 36.2733 14.3053 35.9613 14.6C35.6493 14.8947 35.3893 15.25 35.1813 15.666C34.9906 16.082 34.878 16.5413 34.8433 17.044H41.9153ZM56.1538 25.26C55.1138 25.26 54.1864 25.026 53.3718 24.558C52.5571 24.09 51.9158 23.4487 51.4478 22.634V25H48.4058V6.02H51.8898V13.768C52.3751 12.936 53.0078 12.2947 53.7878 11.844C54.5851 11.376 55.5124 11.142 56.5698 11.142C57.4538 11.142 58.2598 11.3327 58.9878 11.714C59.7158 12.0953 60.3398 12.6067 60.8598 13.248C61.3971 13.8893 61.8044 14.6433 62.0818 15.51C62.3764 16.3767 62.5238 17.2867 62.5238 18.24C62.5238 19.228 62.3591 20.1467 62.0298 20.996C61.7178 21.8453 61.2758 22.5907 60.7038 23.232C60.1318 23.856 59.4558 24.35 58.6758 24.714C57.8958 25.078 57.0551 25.26 56.1538 25.26ZM55.1918 22.296C55.7464 22.296 56.2578 22.192 56.7258 21.984C57.1938 21.7587 57.5924 21.464 57.9218 21.1C58.2511 20.736 58.5024 20.3113 58.6758 19.826C58.8664 19.3407 58.9618 18.8207 58.9618 18.266C58.9618 17.7113 58.8751 17.1827 58.7018 16.68C58.5284 16.1773 58.2771 15.7353 57.9478 15.354C57.6358 14.9727 57.2631 14.6693 56.8298 14.444C56.3964 14.2187 55.9198 14.106 55.3998 14.106C54.6198 14.106 53.9178 14.366 53.2938 14.886C52.6871 15.3887 52.2191 16.0127 51.8898 16.758V20.008C52.0111 20.3547 52.1844 20.6667 52.4098 20.944C52.6524 21.2213 52.9211 21.464 53.2158 21.672C53.5104 21.8627 53.8311 22.0187 54.1778 22.14C54.5244 22.244 54.8624 22.296 55.1918 22.296Z" fill="#2196F3"/>
<path d="M84.0264 11.376C83.905 11.2547 83.6797 11.09 83.3504 10.882C83.0384 10.674 82.6484 10.4747 82.1804 10.284C81.7297 10.076 81.2357 9.90267 80.6984 9.764C80.161 9.62533 79.615 9.556 79.0604 9.556C78.0724 9.556 77.3357 9.738 76.8504 10.102C76.365 10.466 76.1224 10.9773 76.1224 11.636C76.1224 12.0173 76.209 12.338 76.3824 12.598C76.573 12.8407 76.8417 13.0573 77.1884 13.248C77.535 13.4387 77.9684 13.612 78.4884 13.768C79.0257 13.924 79.641 14.0887 80.3344 14.262C81.2357 14.5047 82.0504 14.7647 82.7784 15.042C83.5237 15.3193 84.1477 15.666 84.6504 16.082C85.1704 16.498 85.569 17.0007 85.8464 17.59C86.1237 18.162 86.2624 18.8727 86.2624 19.722C86.2624 20.71 86.0717 21.5593 85.6904 22.27C85.3264 22.9633 84.8237 23.5267 84.1824 23.96C83.5584 24.3933 82.8304 24.714 81.9984 24.922C81.1837 25.1127 80.3257 25.208 79.4244 25.208C78.0377 25.208 76.6684 25 75.3164 24.584C73.9644 24.168 72.751 23.5787 71.6764 22.816L73.2624 19.722C73.4184 19.878 73.6957 20.086 74.0944 20.346C74.5104 20.5887 74.9957 20.84 75.5504 21.1C76.105 21.3427 76.7204 21.5507 77.3964 21.724C78.0724 21.8973 78.7657 21.984 79.4764 21.984C81.4524 21.984 82.4404 21.3513 82.4404 20.086C82.4404 19.6873 82.3277 19.3493 82.1024 19.072C81.877 18.7947 81.5564 18.552 81.1404 18.344C80.7244 18.136 80.2217 17.9453 79.6324 17.772C79.043 17.5987 78.3844 17.408 77.6564 17.2C76.7724 16.9573 76.001 16.6973 75.3424 16.42C74.701 16.1253 74.1637 15.7873 73.7304 15.406C73.297 15.0073 72.9677 14.5567 72.7424 14.054C72.5344 13.534 72.4304 12.9187 72.4304 12.208C72.4304 11.272 72.6037 10.44 72.9504 9.712C73.297 8.984 73.7737 8.37733 74.3804 7.892C75.0044 7.40667 75.7237 7.04267 76.5384 6.8C77.353 6.54 78.2284 6.41 79.1644 6.41C80.4644 6.41 81.6604 6.618 82.7524 7.034C83.8444 7.43267 84.7977 7.90933 85.6124 8.464L84.0264 11.376ZM97.4273 24.298C96.9593 24.506 96.3873 24.714 95.7113 24.922C95.0353 25.13 94.3247 25.234 93.5793 25.234C93.094 25.234 92.6347 25.1733 92.2013 25.052C91.7853 24.9307 91.4127 24.74 91.0833 24.48C90.7713 24.2027 90.52 23.856 90.3293 23.44C90.1387 23.0067 90.0433 22.4867 90.0433 21.88V14.054H88.2493V11.376H90.0433V6.956H93.5273V11.376H96.3873V14.054H93.5273V20.71C93.5273 21.1953 93.6487 21.542 93.8913 21.75C94.1513 21.9407 94.4633 22.036 94.8273 22.036C95.1913 22.036 95.5467 21.9753 95.8933 21.854C96.24 21.7327 96.5173 21.6287 96.7253 21.542L97.4273 24.298ZM104.182 25.26C102.778 25.26 101.712 24.8093 100.984 23.908C100.256 23.0067 99.8919 21.672 99.8919 19.904V11.376H103.376V19.15C103.376 21.2473 104.13 22.296 105.638 22.296C106.314 22.296 106.964 22.0967 107.588 21.698C108.229 21.282 108.749 20.658 109.148 19.826V11.376H112.632V20.996C112.632 21.36 112.693 21.62 112.814 21.776C112.953 21.932 113.169 22.0187 113.464 22.036V25C113.117 25.0693 112.823 25.1127 112.58 25.13C112.355 25.1473 112.147 25.156 111.956 25.156C111.332 25.156 110.821 25.0173 110.422 24.74C110.041 24.4453 109.815 24.0467 109.746 23.544L109.668 22.452C109.061 23.388 108.281 24.09 107.328 24.558C106.375 25.026 105.326 25.26 104.182 25.26ZM122.516 25.26C121.58 25.26 120.713 25.078 119.916 24.714C119.119 24.35 118.434 23.8473 117.862 23.206C117.29 22.5647 116.839 21.8193 116.51 20.97C116.198 20.1033 116.042 19.176 116.042 18.188C116.042 17.2 116.189 16.2813 116.484 15.432C116.796 14.5827 117.221 13.8373 117.758 13.196C118.295 12.5547 118.937 12.052 119.682 11.688C120.427 11.324 121.242 11.142 122.126 11.142C123.131 11.142 124.033 11.3847 124.83 11.87C125.645 12.3553 126.277 12.988 126.728 13.768V6.02H130.212V20.996C130.212 21.36 130.273 21.62 130.394 21.776C130.515 21.932 130.723 22.0187 131.018 22.036V25C130.411 25.1213 129.917 25.182 129.536 25.182C128.912 25.182 128.401 25.026 128.002 24.714C127.603 24.402 127.378 23.9947 127.326 23.492L127.248 22.634C126.745 23.5007 126.061 24.1593 125.194 24.61C124.345 25.0433 123.452 25.26 122.516 25.26ZM123.426 22.296C123.755 22.296 124.093 22.244 124.44 22.14C124.787 22.0187 125.107 21.854 125.402 21.646C125.697 21.438 125.957 21.1953 126.182 20.918C126.425 20.6407 126.607 20.3373 126.728 20.008V16.758C126.589 16.3767 126.39 16.03 126.13 15.718C125.887 15.3887 125.601 15.1113 125.272 14.886C124.96 14.6433 124.622 14.4527 124.258 14.314C123.911 14.1753 123.565 14.106 123.218 14.106C122.698 14.106 122.213 14.2187 121.762 14.444C121.329 14.6693 120.956 14.9813 120.644 15.38C120.332 15.7613 120.089 16.2033 119.916 16.706C119.743 17.2087 119.656 17.7287 119.656 18.266C119.656 18.838 119.751 19.3667 119.942 19.852C120.133 20.3373 120.393 20.762 120.722 21.126C121.051 21.49 121.441 21.776 121.892 21.984C122.36 22.192 122.871 22.296 123.426 22.296ZM134.412 25V11.376H137.896V25H134.412ZM134.412 9.478V6.02H137.896V9.478H134.412ZM148.111 25.26C147.002 25.26 146.005 25.0693 145.121 24.688C144.237 24.3067 143.483 23.7953 142.859 23.154C142.252 22.4953 141.784 21.7413 141.455 20.892C141.126 20.0427 140.961 19.15 140.961 18.214C140.961 17.2607 141.126 16.3593 141.455 15.51C141.784 14.6607 142.252 13.9153 142.859 13.274C143.483 12.6153 144.237 12.0953 145.121 11.714C146.005 11.3327 147.002 11.142 148.111 11.142C149.22 11.142 150.208 11.3327 151.075 11.714C151.959 12.0953 152.704 12.6153 153.311 13.274C153.935 13.9153 154.412 14.6607 154.741 15.51C155.07 16.3593 155.235 17.2607 155.235 18.214C155.235 19.15 155.07 20.0427 154.741 20.892C154.412 21.7413 153.944 22.4953 153.337 23.154C152.73 23.7953 151.985 24.3067 151.101 24.688C150.217 25.0693 149.22 25.26 148.111 25.26ZM144.549 18.214C144.549 18.8207 144.636 19.3753 144.809 19.878C145 20.3633 145.251 20.788 145.563 21.152C145.892 21.516 146.274 21.802 146.707 22.01C147.14 22.2007 147.608 22.296 148.111 22.296C148.614 22.296 149.082 22.2007 149.515 22.01C149.948 21.802 150.321 21.516 150.633 21.152C150.962 20.788 151.214 20.3547 151.387 19.852C151.578 19.3493 151.673 18.7947 151.673 18.188C151.673 17.5987 151.578 17.0527 151.387 16.55C151.214 16.0473 150.962 15.614 150.633 15.25C150.321 14.886 149.948 14.6087 149.515 14.418C149.082 14.21 148.614 14.106 148.111 14.106C147.608 14.106 147.14 14.21 146.707 14.418C146.274 14.626 145.892 14.912 145.563 15.276C145.251 15.64 145 16.0733 144.809 16.576C144.636 17.0787 144.549 17.6247 144.549 18.214Z" fill="black"/>
</g>
<defs>
<filter id="filter0_d" x="0" y="0" width="161" height="39" filterUnits="userSpaceOnUse" color-interpolation-filters="sRGB">
<feFlood flood-opacity="0" result="BackgroundImageFix"/>
<feColorMatrix in="SourceAlpha" type="matrix" values="0 0 0 0 0 0 0 0 0 0 0 0 0 0 0 0 0 0 127 0"/>
<feOffset dy="4"/>
<feGaussianBlur stdDeviation="2"/>
<feColorMatrix type="matrix" values="0 0 0 0 0 0 0 0 0 0 0 0 0 0 0 0 0 0 0.25 0"/>
<feBlend mode="normal" in2="BackgroundImageFix" result="effect1_dropShadow"/>
<feBlend mode="normal" in="SourceGraphic" in2="effect1_dropShadow" result="shape"/>
</filter>
</defs>
</svg>

<svg width="160" height="34" fill="none" xmlns="http://www.w3.org/2000/svg"><g filter="url(#filter0_d)"><path d="M12.294 6.592h3.302l2.08 6.11 2.08-6.11h3.328l-3.146 8.398 2.34 5.902L27.504 6.54h3.9L23.89 25h-3.016l-3.198-7.748L14.478 25h-3.016L4 6.54h3.848L13.1 20.892l2.288-5.902-3.094-8.398zM38.379 25.26c-1.092 0-2.08-.182-2.964-.546a6.96 6.96 0 01-2.262-1.534 6.926 6.926 0 01-1.456-2.236 7.343 7.343 0 01-.494-2.678c0-.97.165-1.88.494-2.73.33-.867.806-1.62 1.43-2.262a6.763 6.763 0 012.262-1.56c.902-.381 1.907-.572 3.016-.572 1.11 0 2.098.19 2.964.572.884.381 1.63.893 2.236 1.534a6.27 6.27 0 011.404 2.236c.33.85.494 1.733.494 2.652 0 .225-.008.442-.026.65 0 .208-.017.381-.052.52h-10.53c.052.537.182 1.014.39 1.43a3.51 3.51 0 001.924 1.742c.416.156.85.234 1.3.234.694 0 1.344-.165 1.95-.494.624-.347 1.049-.797 1.274-1.352l2.99.832c-.502 1.04-1.308 1.898-2.418 2.574-1.092.659-2.4.988-3.926.988zm3.536-8.216c-.086-1.023-.468-1.837-1.144-2.444-.658-.624-1.464-.936-2.418-.936-.468 0-.91.087-1.326.26a3.278 3.278 0 00-1.066.676c-.312.295-.572.65-.78 1.066-.19.416-.303.875-.338 1.378h7.072zm14.239 8.216c-1.04 0-1.968-.234-2.782-.702a5.125 5.125 0 01-1.924-1.924V25h-3.042V6.02h3.484v7.748c.485-.832 1.118-1.473 1.898-1.924.797-.468 1.724-.702 2.782-.702.884 0 1.69.19 2.418.572a5.927 5.927 0 011.872 1.534 6.621 6.621 0 011.222 2.262c.294.867.442 1.777.442 2.73 0 .988-.165 1.907-.494 2.756a6.892 6.892 0 01-1.326 2.236 6.384 6.384 0 01-2.028 1.482 5.89 5.89 0 01-2.522.546zm-.962-2.964c.554 0 1.066-.104 1.534-.312.468-.225.866-.52 1.196-.884.33-.364.58-.789.754-1.274.19-.485.286-1.005.286-1.56 0-.555-.087-1.083-.26-1.586a4.003 4.003 0 00-.754-1.326 3.543 3.543 0 00-1.118-.91 3.053 3.053 0 00-1.43-.338c-.78 0-1.482.26-2.106.78a5.035 5.035 0 00-1.404 1.872v3.25c.121.347.294.659.52.936.242.277.511.52.806.728.294.19.615.347.962.468a3.52 3.52 0 001.014.156z" fill="#2196F3"/><path d="M84.026 11.376c-.121-.121-.346-.286-.676-.494a6.64 6.64 0 00-1.17-.598 8.75 8.75 0 00-1.482-.52 6.53 6.53 0 00-1.638-.208c-.988 0-1.724.182-2.21.546-.485.364-.728.875-.728 1.534 0 .381.087.702.26.962.191.243.46.46.806.65.347.19.78.364 1.3.52.538.156 1.153.32 1.846.494.902.243 1.716.503 2.444.78.746.277 1.37.624 1.872 1.04.52.416.919.919 1.196 1.508.278.572.416 1.283.416 2.132 0 .988-.19 1.837-.572 2.548a4.571 4.571 0 01-1.508 1.69c-.624.433-1.352.754-2.184.962-.814.19-1.672.286-2.574.286-1.386 0-2.756-.208-4.108-.624a12.682 12.682 0 01-3.64-1.768l1.586-3.094c.156.156.434.364.832.624.416.243.902.494 1.456.754.555.243 1.17.45 1.846.624.676.173 1.37.26 2.08.26 1.976 0 2.964-.633 2.964-1.898 0-.399-.112-.737-.338-1.014-.225-.277-.546-.52-.962-.728a9.207 9.207 0 00-1.508-.572c-.589-.173-1.248-.364-1.976-.572a18.915 18.915 0 01-2.314-.78c-.641-.295-1.178-.633-1.612-1.014a4.117 4.117 0 01-.988-1.352c-.208-.52-.312-1.135-.312-1.846 0-.936.174-1.768.52-2.496a5.104 5.104 0 011.43-1.82A6.498 6.498 0 0176.538 6.8a8.59 8.59 0 012.626-.39c1.3 0 2.496.208 3.588.624 1.092.399 2.046.875 2.86 1.43l-1.586 2.912zm13.401 12.922c-.468.208-1.04.416-1.716.624a7.209 7.209 0 01-2.132.312 5.09 5.09 0 01-1.378-.182 3.257 3.257 0 01-1.118-.572 3.094 3.094 0 01-.754-1.04c-.19-.433-.286-.953-.286-1.56v-7.826H88.25v-2.678h1.794v-4.42h3.484v4.42h2.86v2.678h-2.86v6.656c0 .485.122.832.364 1.04.26.19.572.286.936.286.364 0 .72-.06 1.066-.182.347-.121.624-.225.832-.312l.702 2.756zm6.755.962c-1.404 0-2.47-.45-3.198-1.352-.728-.901-1.092-2.236-1.092-4.004v-8.528h3.484v7.774c0 2.097.754 3.146 2.262 3.146.676 0 1.326-.2 1.95-.598.641-.416 1.161-1.04 1.56-1.872v-8.45h3.484v9.62c0 .364.061.624.182.78.139.156.355.243.65.26V25a7.272 7.272 0 01-1.508.156c-.624 0-1.135-.139-1.534-.416a1.752 1.752 0 01-.676-1.196l-.078-1.092c-.607.936-1.387 1.638-2.34 2.106-.953.468-2.002.702-3.146.702zm18.334 0a6.185 6.185 0 01-2.6-.546 6.135 6.135 0 01-2.054-1.508 7.27 7.27 0 01-1.352-2.236 8.152 8.152 0 01-.468-2.782c0-.988.147-1.907.442-2.756a7.45 7.45 0 011.274-2.236 5.813 5.813 0 011.924-1.508 5.493 5.493 0 012.444-.546c1.005 0 1.907.243 2.704.728a5.243 5.243 0 011.898 1.898V6.02h3.484v14.976c0 .364.061.624.182.78.121.156.329.243.624.26V25c-.607.121-1.101.182-1.482.182-.624 0-1.135-.156-1.534-.468a1.716 1.716 0 01-.676-1.222l-.078-.858a5.007 5.007 0 01-2.054 1.976 5.815 5.815 0 01-2.678.65zm.91-2.964c.329 0 .667-.052 1.014-.156a3.883 3.883 0 001.742-1.222c.243-.277.425-.58.546-.91v-3.25a3.467 3.467 0 00-.598-1.04 3.564 3.564 0 00-.858-.832 3.912 3.912 0 00-1.014-.572 2.781 2.781 0 00-1.04-.208c-.52 0-1.005.113-1.456.338a3.404 3.404 0 00-1.118.936 4.263 4.263 0 00-.728 1.326 4.761 4.761 0 00-.26 1.56c0 .572.095 1.1.286 1.586.191.485.451.91.78 1.274s.719.65 1.17.858c.468.208.979.312 1.534.312zM134.412 25V11.376h3.484V25h-3.484zm0-15.522V6.02h3.484v3.458h-3.484zm13.699 15.782c-1.109 0-2.106-.19-2.99-.572a6.96 6.96 0 01-2.262-1.534 7.08 7.08 0 01-1.404-2.262 7.35 7.35 0 01-.494-2.678c0-.953.165-1.855.494-2.704a6.78 6.78 0 011.404-2.236 6.763 6.763 0 012.262-1.56c.884-.381 1.881-.572 2.99-.572 1.109 0 2.097.19 2.964.572a6.49 6.49 0 012.236 1.56 6.58 6.58 0 011.43 2.236c.329.85.494 1.75.494 2.704a7.35 7.35 0 01-.494 2.678 7.08 7.08 0 01-1.404 2.262c-.607.641-1.352 1.153-2.236 1.534-.884.381-1.881.572-2.99.572zm-3.562-7.046c0 .607.087 1.161.26 1.664.191.485.442.91.754 1.274.329.364.711.65 1.144.858.433.19.901.286 1.404.286.503 0 .971-.095 1.404-.286a3.39 3.39 0 001.118-.858c.329-.364.581-.797.754-1.3a4.65 4.65 0 00.286-1.664c0-.59-.095-1.135-.286-1.638a3.718 3.718 0 00-.754-1.3 3.104 3.104 0 00-1.118-.832 3.2 3.2 0 00-1.404-.312 3.2 3.2 0 00-1.404.312 3.676 3.676 0 00-1.144.858 4.35 4.35 0 00-.754 1.3 5.002 5.002 0 00-.26 1.638z" fill="#000"/></g><defs><filter id="filter0_d" x="0" y="0" width="161" height="39" filterUnits="userSpaceOnUse" color-interpolation-filters="sRGB"><feFlood flood-opacity="0" result="BackgroundImageFix"/><feColorMatrix in="SourceAlpha" values="0 0 0 0 0 0 0 0 0 0 0 0 0 0 0 0 0 0 127 0"/><feOffset dy="4"/><feGaussianBlur stdDeviation="2"/><feColorMatrix values="0 0 0 0 0 0 0 0 0 0 0 0 0 0 0 0 0 0 0.25 0"/><feBlend in2="BackgroundImageFix" result="effect1_dropShadow"/><feBlend in="SourceGraphic" in2="effect1_dropShadow" result="shape"/></filter></defs></svg>
